!!!COM: Palestrina, Giovanni Perluigi da
!!!OPR: In te Domine speravi (1593-4)
!!!OTL: Gloria
**kern	**kern	**kern	**kern
*Ibass	*Itenor	*Icalto	*Icant
!Bassus	!Tenor	!Altus	!Cantus
*clefF4	*clefGv2	*clefG2	*clefG2
*k[]	*k[]	*k[]	*k[]
*D:dor	*D:dor	*D:dor	*D:dor
*M4/2	*M4/2	*M4/2	*M4/2
=1	=1	=1	=1
0r	0r	1r	1.a
.	.	[1d	.
.	.	.	2a
=2	=2	=2	=2
0r	0r	2d]	2dd
.	.	2d	2dd
.	.	2a	2.cc
.	.	2a	.
.	.	.	4dd
=3	=3	=3	=3
0r	0r	2g	2ee
.	.	4f	1ff
.	.	4e	.
.	.	2d	.
.	.	2e	[2ee
=4	=4	=4	=4
0r	1r	2f	4ee]
.	.	.	4dd
.	.	2g	1dd
.	[1A	1e	.
.	.	.	2cc#
=5	=5	=5	=5
1.D	2A]	1.f	2.dd
.	2A	.	.
.	.	.	8cc
.	.	.	8b-
.	2d	.	[1a
2D	2d	4e	.
.	.	4d	.
=6	=6	=6	=6
2A	2.c	1e	1a]
2A	.	.	.
.	4d	.	.
2G	4e	1r	1r
.	4d	.	.
4F	[2f	.	.
4E	.	.	.
=7	=7	=7	=7
4D	4f]	0r	1a
4E	4e	.	.
4F	1d	.	.
4D	.	.	.
1E	.	.	1ee
.	2c#	.	.
=8	=8	=8	=8
2D	2d	1a	1ff
2D	2d	.	.
1A	1c#	2.a	2ee
.	.	.	[2ff
.	.	4g	.
=9	=9	=9	=9
1B-	1d	2f	2ff]
.	.	2g	4ee
.	.	.	4dd
1A	1e	4a	4cc
.	.	4b	4dd
.	.	[2cc	[2ee
=10	=10	=10	=10
0r	2.A	4cc]	4ee]
.	.	4b	4dd
.	.	1a	2cc
.	4A	.	.
.	2e	.	1b
.	2e	2g#	.
=11	=11	=11	=11
2.D	1f	1a	2r
.	.	.	1dd
4D	.	.	.
2A	1e	1r	.
2A	.	.	2cc#
=12	=12	=12	=12
1B-	2r	2.d	2dd
.	1d	.	2dd
.	.	4d	.
1A	.	2a	2ff
.	2c#	2a	[2ee
=13	=13	=13	=13
0r	2d	2b-	4ee]
.	.	.	4dd
.	2d	1a	1dd
.	2f	.	.
.	[2e	[2g	2cc#
=14	=14	=14	=14
1D	4e]	4g]	1dd
.	4d	4f	.
.	1d	4f	.
.	.	8e	.
.	.	8d	.
1A	.	2e	1r
.	2c	[2f	.
=15	=15	=15	=15
2B-	1d	2f]	1r
2B-	.	4e	.
.	.	4d	.
[1A	[1e	[1c#	1a
=16	=16	=16	=16
1A]	1e]	1c#]	1ee
1r	2r	1d	2ff
.	[2d	.	2ff
=17	=17	=17	=17
1r	2d]	1a	1ee
.	2c#	.	.
2r	2d	2b-	1dd
2d	2G	2b-	.
=18	=18	=18	=18
2d	1A	0a	2ff
2c#	.	.	2ee
2d	1r	.	1ff
4D	.	.	.
4E	.	.	.
=19	=19	=19	=19
4F	1A	2r	2ff
4G	.	.	.
2.A	.	2a	4ee
.	.	.	4dd
.	2e	2a	4cc
4B	.	.	4dd
2c	2e	2g	[2ee
=20	=20	=20	=20
2.F	1f	1a	4ee]
.	.	.	4dd
.	.	.	1dd
4G	.	.	.
1A	1e	1a	.
.	.	.	2cc#
=21	=21	=21	=21
2r	2d	2f#	1dd
1d	1f#	1a	.
.	.	.	2r
2d	2f#	2a	[2dd
=22	=22	=22	=22
1d	1f#	1a	4dd]
.	.	.	4dd
.	.	.	2dd
1G	1g	1b	1dd
=23	=23	=23	=23
2G	2g	2b	2dd
2G	2g	2b	2dd
[1c	1g	1cc	[1ee
=24	=24	=24	=24
1c]	2a	1cc	1ee]
.	1g	.	.
1d	.	2b	2dd
.	2f#	2a	[2dd
=25	=25	=25	=25
0r	2g	2b	2dd]
.	2e	2g	2cc#
.	2f	2a	2dd
.	2e	2g	2ee
=26	=26	=26	=26
0r	4d	2a	1.ff
.	4e	.	.
.	4f	4d	.
.	4g	4e	.
.	1a	4f	.
.	.	4g	.
.	.	4a	2ee
.	.	4b	.
=27	=27	=27	=27
0r	1f	4cc	2a
.	.	4b	.
.	.	2a	1cc
.	[1e	2g	.
.	.	[2a	4b
.	.	.	4a
=28	=28	=28	=28
1r	1e]	2a]	1b
.	.	2g#	.
2r	2r	1a	[1a
2d	[2f	.	.
=29	=29	=29	=29
2d	4f]	2r	1a]
.	4f	.	.
2c#	2e	2.a	.
2d	2f	.	1r
.	.	4a	.
2B	2d	2g#	.
=30	=30	=30	=30
2c	2e	2a	0r
2B	2d	2b	.
1A	2e	2cc	.
.	2f	2a	.
=31	=31	=31	=31
1G	2.g	1b-	2r
.	.	.	1dd
.	4f	.	.
2.A	1e	2a	.
.	.	[2a	2cc#
4G	.	.	.
=32	=32	=32	=32
2F	1r	2a]	2dd
2E	.	2g	2ee
4D	2r	1a	1ff
4E	.	.	.
4F	[2d	.	.
4G	.	.	.
=33	=33	=33	=33
1A	2d]	1a	2.ee
.	2c#	.	.
.	.	.	8dd
.	.	.	8ee
2D	2d	1a	2ff
2C#	2e	.	[2ee
=34	=34	=34	=34
2D	1f	1.a	4ee]
.	.	.	4dd
2D	.	.	1dd
1A	2e	.	.
.	2e	2a	2cc#
=35	=35	=35	=35
2r	2d	1a	0dd
2.d	2.f	.	.
.	.	2r	.
4d	4f	.	.
2d	2f	[2a	.
=36	=36	=36	=36
2c	2e	4a]	0r
.	.	4a	.
2A	2c	2a	.
2.c	2.e	2g	.
.	.	2e	.
4B	4d	.	.
=37	=37	=37	=37
2A	2c	2f	1r
2G	2B	1e	.
2F	2A	.	2r
2G	2B	[2d	[2gg
=38	=38	=38	=38
1E	1G	2d]	4gg]
.	.	.	4gg
.	.	2c#	2gg
1D	1A	2d	2ff
.	.	2a	2dd
=39	=39	=39	=39
0r	2.d	2a	2.ff
.	.	2f	.
.	4c	.	4ee
.	2B-	2g	2dd
.	2A	[2a	2cc
=40	=40	=40	=40
0r	2e	4a]	2b
.	.	4g	.
.	2c	1g	2cc
.	1d	.	[1a
.	.	4f#	.
.	.	4e	.
=41	=41	=41	=41
0d	1r	1f#	1a]
.	1f	[1a	1dd
=42	=42	=42	=42
1A	2e	1a]	1cc
.	1a	.	.
[1c	.	1e	[1ee
.	4g	.	.
.	4f	.	.
=43	=43	=43	=43
2c]	4e	1.g	2ee]
.	4f	.	.
2B	2g	.	2dd
1A	1c	.	[1cc
.	.	2f	.
=44	=44	=44	=44
0G	2.g	2e	2cc]
.	.	2d	4b
.	4f	.	4a
.	2e	2.g	1b
.	2d	.	.
.	.	4f	.
=45	=45	=45	=45
0A	2c#	2e	[0a
.	1d	2d	.
.	.	1e	.
.	2c#	.	.
=46	=46	=46	=46
2r	2d	1d	0a]
1d	1f	.	.
.	.	1r	.
2d	2f	.	.
=47	=47	=47	=47
2c#	2e	1.a	0r
2d	2f	.	.
2A	1e	.	.
2c	.	2a	.
=48	=48	=48	=48
2B	0r	2g#	0r
4A	.	2a	.
4B	.	.	.
4c	.	2e	.
4d	.	.	.
4e	.	2g	.
4c	.	.	.
=49	=49	=49	=49
2.d	0r	2f	2r
.	.	1a	1dd
4c	.	.	.
1B	.	.	.
.	.	2g#	2dd
=50	=50	=50	=50
2A	2r	2a	2cc#
4D	1a	1f	2dd
4E	.	.	.
4F	.	.	2a
4G	.	.	.
2A	2a	4e	2cc
.	.	4d	.
=51	=51	=51	=51
2E	2g#	2e	2b
2F	2a	2c	4a
.	.	.	4b
1C	2e	2.g	4cc
.	.	.	4dd
.	[2g	.	[2ee
.	.	4a	.
=52	=52	=52	=52
1D	2g]	2b-	4ee]
.	.	.	4dd
.	2f	2a	1dd
1A	1e	1a	.
.	.	.	2cc#
=53	=53	=53	=53
2B-	1d	2r	4dd
.	.	.	4cc
2B-	.	2d	4b-
.	.	.	4a
2.c	1r	2e	1g
.	.	2e	.
4B-	.	.	.
=54	=54	=54	=54
4A	0r	2.f	1a
4G	.	.	.
4F	.	.	.
4G	.	4e	.
4A	.	4c	1r
4B	.	4d	.
4c	.	4e	.
4A	.	4c	.
=55	=55	=55	=55
4B	1d	2d	0r
4c	.	.	.
1d	.	2B	.
.	2e	1A	.
2c#	2e	.	.
=56	=56	=56	=56
2.d	2.f	2r	1a
.	.	2.a	.
4c	4e	.	.
1B	4d	.	2b
.	4c	8g#	.
.	.	8f#	.
.	2d	2g#	2b
=57	=57	=57	=57
1A	2e	2a	2.cc
.	2c	2e	.
.	.	.	4b
2r	1d	2f	4a
.	.	.	4g
2D	.	2f	2a
=58	=58	=58	=58
2E	2r	4g	2g
.	.	4f	.
2E	2G	4e	2b
.	.	4d	.
2.F	2A	4c	2a
.	.	8d	.
.	.	8e	.
.	2A	2f	[2cc
4G	.	.	.
=59	=59	=59	=59
1A	1c	[0e	4cc]
.	.	.	4b
.	.	.	1a
1E	1B	.	.
.	.	.	2g#
=60	=60	=60	=60
0A	0c#	0e]	0a
=61	=61	=61	=61
0r	0r	1d	1r
.	.	2.f	1a
.	.	4g	.
=62	=62	=62	=62
0r	0r	1a	2.cc
.	.	.	4dd
.	.	2a	1ee
.	.	2g#	.
=63	=63	=63	=63
0r	1r	2a	2ee
.	.	2b	2dd
.	1A	2cc	2ee
.	.	[2a	2ff
=64	=64	=64	=64
0r	2.c	2a]	1.ee
.	.	4g	.
.	4d	4f	.
.	1e	[1g	.
.	.	.	4dd
.	.	.	4cc
=65	=65	=65	=65
0r	2e	2g]	4b
.	.	.	4cc
.	2d	2f	2.dd
.	2e	2g	.
.	.	.	4cc
.	2f	[2a	4cc
.	.	.	8b
.	.	.	8a
=66	=66	=66	=66
1r	1e	2a]	1b
.	.	2g#	.
2r	2f	2a	2a
[2F	[2a	[2cc	[2ff
=67	=67	=67	=67
2F]	2a]	2cc]	2ff]
2F	2a	2cc	2ff
2c	2g	2cc	2ee
2d	2f	2a	2dd
=68	=68	=68	=68
1G	2.g	1b-	4ee
.	.	.	4dd
.	.	.	1dd
.	4f	.	.
1A	1e	2.a	.
.	.	.	4cc#
.	.	8g	4b
.	.	8f	.
=69	=69	=69	=69
2r	1A	2e	2cc#
2D	.	2.f	2dd
2.F	2r	.	[1a
.	.	4c	.
.	2A	2f	.
4G	.	.	.
=70	=70	=70	=70
1A	2.c	1e	1a]
.	4d	.	.
2A	1e	1r	1r
2G#	.	.	.
=71	=71	=71	=71
2A	2e	0r	1r
2B	2d	.	.
2c	2e	.	1a
2d	2f	.	.
=72	=72	=72	=72
1A	1e	1a	2.cc
.	.	.	4dd
2r	4A	1cc	1ee
.	4B	.	.
2A	4c	.	.
.	4d	.	.
=73	=73	=73	=73
2A	4e	2cc	2ee
.	4f	.	.
2B	1g	2b	2dd
2c	.	1a	2ee
2d	2f	.	2ff
=74	=74	=74	=74
2.c	2g	1cc	1ee
.	1a	.	.
4d	.	.	.
1e	.	1b	2ee
.	2g#	.	[2ee
=75	=75	=75	=75
2r	2a	2cc	2ee]
1A	1e	1a	2cc
.	.	.	[1cc
2F	2f	2a	.
=76	=76	=76	=76
1F	1f	1a	1cc]
1F	[1a	[1cc	[1ff
=77	=77	=77	=77
1c	2a]	2cc]	2ff]
.	2g	2cc	2ee
2d	2f	2a	2dd
2A	2e	2a	2cc
=78	=78	=78	=78
0B-	1d	1.f	0dd
.	2d	.	.
.	[2f	2d	.
=79	=79	=79	=79
1A	2f]	0a	1cc
.	2e	.	.
2.F	2d	.	2r
.	2c	.	[2ff
4E	.	.	.
=80	=80	=80	=80
1D	2d	0a	4ff]
.	.	.	4ee
.	2f	.	1dd
1A	1e	.	.
.	.	.	2cc#
=81	=81	=81	=81
2r	2d	2r	0dd
2d	2f	2a	.
1G	1g	1b-	.
=82	=82	=82	=82
1A	4f	1.a	2r
.	4e	.	.
.	4e	.	2ee
.	8d	.	.
.	8c#	.	.
2r	1d	.	1ff
2D	.	2a	.
=83	=83	=83	=83
1.A	1r	2cc	2ee
.	.	2cc	2a
.	2r	1a	2cc
2A	2e	.	2cc
=84	=84	=84	=84
4F	1f	2.cc	4a
4G	.	.	4b
4A	.	.	4cc
4B	.	4b	4dd
2c	2e	4a	2ee
.	.	4g	.
[2d	2d	4f	[2ff
.	.	4e	.
=85	=85	=85	=85
2d]	1a	2d	2ff]
2c#	.	2e	1ee
[1d	2a	2.f	.
.	2a	.	4dd
.	.	4g	4cc#
=86	=86	=86	=86
1d]	1f	1a	1dd
1A	1e	2r	[1ee
.	.	[2a	.
=87	=87	=87	=87
1.c	2r	2a]	1ee]
.	1e	2g	.
.	.	[1g	1r
2B-	2d	.	.
=88	=88	=88	=88
1.B-	1.d	2g]	0r
.	.	2f	.
.	.	2g	.
2A	2c#	[2a	.
=89	=89	=89	=89
1B-	1d	4a]	1r
.	.	4g	.
.	.	1g	.
1A	1c	.	[1cc
.	.	2f#	.
=90	=90	=90	=90
0G	0d	1g	2cc]
.	.	.	2b-
.	.	2r	[1b-
.	.	[2g	.
=91	=91	=91	=91
1d	2r	2g]	2b-]
.	2d	2f#	2a
1G	2d	2g	1b-
.	2e	2g	.
=92	=92	=92	=92
2A	2e	[0cc	1a
2A	2.f	.	.
[1c	.	.	[1g
.	4e	.	.
.	4e	.	.
.	4d	.	.
=93	=93	=93	=93
1c]	1e	1cc]	1g]
2F	2f	1a	2r
[2F	[2f	.	[2cc
=94	=94	=94	=94
2F]	2f]	1.a	2cc]
2F	2f	.	2cc
4F	2f	.	1cc
4G	.	.	.
4A	2f	2a	.
4B	.	.	.
=95	=95	=95	=95
1c	2e	0g	2r
.	2e	.	2cc
1G	1d	.	2b
.	.	.	2b
=96	=96	=96	=96
2A	1c	2r	1a
2F	.	2f	.
1c	1r	2e	2g
.	.	2e	2cc
=97	=97	=97	=97
1G	2r	1d	2b
.	2g	.	2b
1r	2f	1d	2a
.	2f	.	2a
=98	=98	=98	=98
1c	2e	1r	0g
.	2e	.	.
2B	1d	2r	.
2B	.	2g	.
=99	=99	=99	=99
2A	1r	2f	2r
2A	.	1e	2cc
1G	2r	.	1b
.	2g	[2d	.
=100	=100	=100	=100
1r	1f	2d]	2a
.	.	2A	2a
2r	1e	1c	2.g
2c	.	.	.
.	.	.	4a
=101	=101	=101	=101
1B	1d	1r	4b
.	.	.	4cc
.	.	.	4dd
.	.	.	4b
2A	2e	2r	4cc
.	.	.	4dd
2A	2c	2cc	4ee
.	.	.	4ff
=102	=102	=102	=102
4G	2.d	1b	1gg
4A	.	.	.
4B	.	.	.
4c	4e	.	.
2d	4f	2a	1ff
.	4g	.	.
2d	4a	2a	.
.	4f	.	.
=103	=103	=103	=103
0e	2g	2cc	[0ee
.	1a	4b	.
.	.	4a	.
.	.	2b	.
.	2g#	2b	.
=104	=104	=104	=104
1r	1a	1cc	1ee]
[1A	[1e	[1a	[1cc#
=105	=105	=105	=105
1A]	1e]	1a]	1cc#]
1d	1f#	2.a	1dd
.	.	4b	.
=106	=106	=106	=106
1.c	1g	2cc	1.ee
.	.	4c	.
.	.	4d	.
.	2c	4e	.
.	.	4f	.
2B	2d	2g	2dd
=107	=107	=107	=107
2A	1e	0a	0cc
2G	.	.	.
1F	1f	.	.
=108	=108	=108	=108
1G	2d	2g	2b
.	2g	2b	2dd
1c	1g	2.cc	2ee
.	.	.	[2ee
.	.	4b-	.
=109	=109	=109	=109
1d	2f	2a	2ee]
.	2.a	2f	1dd
1e	.	2g	.
.	4g	.	.
.	[2g	2g	2cc#
=110	=110	=110	=110
2d	2g]	2a	1dd
2d	2f#	4r	.
.	.	4a	.
1G	1g	2b-	2r
.	.	2b-	2dd
=111	=111	=111	=111
0r	1d	2a	2ff
.	.	2f	2ff
.	1r	2g	2ee
.	.	2a	2cc
=112	=112	=112	=112
0r	2r	4d	1dd
.	.	4e	.
.	2d	4f	.
.	.	4g	.
.	2f	4a	2cc
.	.	4b	.
.	2f	[2cc	2a
=113	=113	=113	=113
0r	2e	4cc]	1cc
.	.	4b	.
.	2c	1a	.
.	2d	.	1b
.	2e	2g	.
=114	=114	=114	=114
1r	4A	2.cc	2.ee
.	4B	.	.
.	4c	.	.
.	4d	4b	4dd
1A	2e	4a	4cc
.	.	4g	4b
.	[2f	4f	4a
.	.	4e	4g
=115	=115	=115	=115
2B-	2f]	1d	2f
2B-	4e	.	2g
.	4d	.	.
2A	2c#	2e	1a
2F	[2d	2f	.
=116	=116	=116	=116
2G	2d]	1e	2r
2A	2c#	.	2ee
4D	1d	2r	2ff
4E	.	.	.
4F	.	2a	2ff
4G	.	.	.
=117	=117	=117	=117
4A	1r	2cc	2ee
4B	.	.	.
4c	.	2cc	2cc
4A	.	.	.
2B	2r	2b	2dd
2c	2e	2g	2ee
=118	=118	=118	=118
4F	2f	1a	4a
4G	.	.	4b
4A	2f	.	4cc
4B	.	.	4dd
2.c	2e	2.g	4ee
.	.	.	4ff
.	2c	.	[2gg
8B	.	4a	.
8A	.	.	.
=119	=119	=119	=119
2G	2d	2b	4gg]
.	.	.	4ff
2.c	2e	2g	4ee
.	.	.	4dd
.	2A	2.a	2.cc
4B	.	.	.
4A	[2a	.	.
4G	.	4b	4b
=120	=120	=120	=120
2F	2a]	2cc	2a
2G	4g	2b-	1dd
.	4f	.	.
1A	1e	1a	.
.	.	.	2cc#
=121	=121	=121	=121
0D	0f#	0a	0dd
==	==	==	==
*-	*-	*-	*-
!!!CDT: 1525/^1526/-1594/2/2
!!!OCY: Italia
!!!AGN: Mass (Parody)
!!!AST: renaissance, vocal
!!!ASW: Motet (?Lhéritier)
!!!PWK: Masses, Book 6
!!!RNB: Cadence finals: A
!!!YOR: Le Opere Complete, v. 21, p. 26
!!!YOO: Rome, Italy: Fratelli Scalera
!!!END: 1992//
!!!EED: John Miller
!!!YEC: Copyright 2000, John Miller
!!!YEN: United States of America
!!!YEM: Rights to all derivative electronic formats reserved.
!!!YEM: Refer to licensing agreement for further details.
!!!YEM: This file must be accompanied by the licensing agreement.
!!!YEM: A copy of the licensing agreement may be found at http://www.music-cog.ohio-state.edu/HumdrumDatabases/Palestrina/license.txt
!!!EMD: converted to Humdrum by Bret Aarden
